X: 23
T: I ziemia, i cokolwiek na niej się najduje,
C: Mikołaj Gomółka
%%abc-version 2.0
%%abcx-abcm2ps-target-version 5.9.1 (29 Sep 2008)
%%abc-creator hum2abc beta
%%abcx-conversion-date 2021/10/04 07:59:10
%%abc-edited-by Leszek Kubiak
%%abcx-initial-encoding-date data 2020-02-05
%%humdrum-veritas 2706828230
%%humdrum-veritas-data 2332699227
%%linebreak <none>
%%barnumbers 0
L: 1/4
M: C|
N: Derived from pl-wn--sd-xvi-qu-273--024_gomolka-mikolaj--i-ziemia-i-cokolwiek-na-niej-sie-najduje.krn
%%staves [1 2 3 4]
V: 1
V: 2
V: 3 clef=alto
V: 4 clef=bass
K: C
[V:1] E4F2G2 [|] 
[V:2] C4CDE4 [|] 
[V:3] G,4A,2B,2 [|] 
[V:4] C,4F,2E,2 [|] 
[V:1] G2F2G2G4 [|] 
[V:2] A,2B,4 [|] 
[V:3] C2C2D4 [|] 
[V:4] A,2A,2G,3F, [|] 
[V:1] A2>G2FE [|] 
[V:2] C2A,2F4 [|] 
[V:3] E2C2D3C [|] 
[V:4] E,2F,2D,4 [|] 
[V:1] D2E2FG2F [|] 
[V:2] G2E2D3C [|] 
[V:3] B,2CB,A,G,A,2 [|] 
[V:4] G,2C,2D,4 [|] 
[V:1] G4 [|] 
[V:2] B,4 [|] 
[V:3] G,4 [|] 
[V:4] G,,4 [|] 
[V:1] B4 [I:setbarnb 6][|] 
[V:2] G4 [|] 
[V:3] D4 [|] 
[V:4] G,,4 [|] 
[V:1] c4A3A [|] 
[V:2] G2C2C3C [|] 
[V:3] E4F3F [|] 
[V:4] C,4F,,3F,, [|] 
[V:1] GFGAB2G2 [|] 
[V:2] CDEFG2D2 [|] 
[V:3] E2E2D2B,2 [|] 
[V:4] C,2C,2G,,2G,2 [|] 
[V:1] G2E2F3E [|] 
[V:2] G2A2>G2F2 [|] 
[V:3] EDCB,A,4 [|] 
[V:4] E,2A,G,F,E,D,2 [|] 
[V:1] DE2DE2E2 [|] 
[V:2] G4G2G2 [|] 
[V:3] B,C2B,C4 [|] 
[V:4] G,4C,2C,2 [|] 
[V:1] F2G2A2G2 [|] 
[V:2] A2G2F2F2 [|] 
[V:3] z2G,2C2B,2 [|] 
[V:4] F,2E,2F,2G,2 [|] 
[V:1] c2BAGFEF [|] 
[V:2] E2>F2G2C2 [|] 
[V:3] C2D2E4 [|] 
[V:4] A,2G,F,E,D,C,2 | 
[V:1] G4G3E [|] 
[V:2] B,2D2E2E2 [|] 
[V:3] D2B,2C3B, [|] 
[V:4] G,2G,,2C,2C,2 [|] 
[V:1] FG2FG32 [|] 
[V:2] D2>C2B,32 [|] 
[V:3] A,G,A,2G,32 [|] 
[V:4] D,4!fermata!G,,32 [|] 


